icon/lg/java.svg

<?xml version="1.0" encoding="UTF-8" standalone="no"?>
<svg viewBox="0 0 256 346" version="1.1" xmlns="http://www.w3.org/2000/svg" xmlns:xlink="http://www.w3.org/1999/xlink" preserveAspectRatio="xMidYMid" height="1em" width="1em">
  <g>
    <path d="M82.5539491,267.472524 C82.5539491,267.472524 69.35552,275.147869 91.9468218,277.745105 C119.315549,280.867375 133.303389,280.419607 163.463913,274.711273 C163.463913,274.711273 171.393396,279.683258 182.467491,283.989644 C114.855564,312.966982 29.4483782,282.311215 82.5539491,267.472524" fill="#5382A1"/>
    <path d="M74.2921309,229.658996 C74.2921309,229.658996 59.4888145,240.616727 82.0968727,242.955171 C111.333004,245.971316 134.421411,246.218007 174.373236,238.524975 C174.373236,238.524975 179.899113,244.127185 188.588218,247.190807 C106.841367,271.094691 15.79008,249.075898 74.2921309,229.658996" fill="#5382A1"/>
    <path d="M143.941818,165.514705 C160.601367,184.695156 139.564684,201.955142 139.564684,201.955142 C139.564684,201.955142 181.866124,180.117876 162.438982,152.772422 C144.294633,127.271098 130.380335,114.600495 205.706705,70.9138618 C205.706705,70.9138618 87.4691491,100.44416 143.941818,165.514705" fill="#E76F00"/>
    <path d="M233.364015,295.441687 C233.364015,295.441687 243.131113,303.489396 222.60736,309.715316 C183.580858,321.537862 60.1748945,325.107898 25.8932364,310.186356 C13.5698618,304.825251 36.67968,297.385425 43.9491491,295.824291 C51.5304727,294.180305 55.8629236,294.486575 55.8629236,294.486575 C42.15808,284.832116 -32.7195927,313.443607 17.8287709,321.637469 C155.681513,343.993251 269.121164,311.570618 233.364015,295.441687" fill="#5382A1"/>
    <path d="M88.9008873,190.479825 C88.9008873,190.479825 26.1287564,205.389265 66.6717091,210.803433 C83.7901964,213.095331 117.915462,212.576815 149.702284,209.913484 C175.680233,207.722124 201.765236,203.062924 201.765236,203.062924 C201.765236,203.062924 192.605091,206.985775 185.977949,211.510924 C122.233949,228.275665 -0.907636364,220.476509 34.5432436,203.328233 C64.5241018,188.83584 88.9008873,190.479825 88.9008873,190.479825" fill="#5382A1"/>
    <path d="M201.506444,253.422313 C266.305164,219.7504 236.344785,187.392 215.432844,191.751447 C210.307258,192.818269 208.021876,193.742662 208.021876,193.742662 C208.021876,193.742662 209.924655,190.761891 213.558924,189.471651 C254.929455,174.927127 286.746065,232.368873 200.204102,255.11936 C200.204102,255.120291 201.206691,254.223825 201.506444,253.422313" fill="#5382A1"/>
    <path d="M162.438982,0.371432727 C162.438982,0.371432727 198.325527,36.27008 128.402153,91.4720582 C72.3307055,135.753542 115.616116,161.001658 128.37888,189.848669 C95.6490473,160.318371 71.6297309,134.322735 87.7437673,110.128407 C111.395375,74.6132945 176.918342,57.3942691 162.438982,0.371432727" fill="#E76F00"/>
    <path d="M95.2683055,344.665367 C157.466996,348.646865 252.980131,342.45632 255.24224,313.025629 C255.24224,313.025629 250.893964,324.182575 203.838371,333.042967 C150.750487,343.033484 85.2740655,341.867055 46.4393309,335.464262 C46.4402618,335.463331 54.3892945,342.043927 95.2683055,344.665367" fill="#5382A1"/>
  </g>
</svg>

<svg width="256" height="346" xmlns="http://www.w3.org/2000/svg" preserveAspectRatio="xMidYMid"><path d="M82.554 267.473s-13.198 7.675 9.393 10.272c27.369 3.122 41.356 2.675 71.517-3.034 0 0 7.93 4.972 19.003 9.279-67.611 28.977-153.019-1.679-99.913-16.517M74.292 229.659s-14.803 10.958 7.805 13.296c29.236 3.016 52.324 3.263 92.276-4.43 0 0 5.526 5.602 14.215 8.666-81.747 23.904-172.798 1.885-114.296-17.532" fill="#5382A1"/><path d="M143.942 165.515c16.66 19.18-4.377 36.44-4.377 36.44s42.301-21.837 22.874-49.183c-18.144-25.5-32.059-38.172 43.268-81.858 0 0-118.238 29.53-61.765 94.6" fill="#E76F00"/><path d="M233.364 295.442s9.767 8.047-10.757 14.273c-39.026 11.823-162.432 15.393-196.714.471-12.323-5.36 10.787-12.8 18.056-14.362 7.581-1.644 11.914-1.337 11.914-1.337-13.705-9.655-88.583 18.957-38.034 27.15 137.853 22.356 251.292-10.066 215.535-26.195M88.9 190.48s-62.771 14.91-22.228 20.323c17.118 2.292 51.243 1.774 83.03-.89 25.978-2.19 52.063-6.85 52.063-6.85s-9.16 3.923-15.787 8.448c-63.744 16.765-186.886 8.966-151.435-8.183 29.981-14.492 54.358-12.848 54.358-12.848M201.506 253.422c64.8-33.672 34.839-66.03 13.927-61.67-5.126 1.066-7.411 1.99-7.411 1.99s1.903-2.98 5.537-4.27c41.37-14.545 73.187 42.897-13.355 65.647 0 .001 1.003-.895 1.302-1.697" fill="#5382A1"/><path d="M162.439.371s35.887 35.9-34.037 91.101c-56.071 44.282-12.786 69.53-.023 98.377-32.73-29.53-56.75-55.526-40.635-79.72C111.395 74.612 176.918 57.393 162.439.37" fill="#E76F00"/><path d="M95.268 344.665c62.199 3.982 157.712-2.209 159.974-31.64 0 0-4.348 11.158-51.404 20.018-53.088 9.99-118.564 8.824-157.399 2.421.001 0 7.95 6.58 48.83 9.201" fill="#5382A1"/></svg>
